src/icons/svg/Explore.svg

<!-- Generated by IcoMoon.io -->
<svg version="1.1" xmlns="http://www.w3.org/2000/svg" width="24" height="24" viewBox="0 0 24 24">
<title>explore</title>
<path fill="#444" d="M21 7.502h-3c-1.107 0-2.066 0.608-2.585 1.5h-3.415v-1.5h-6v1.5h-4.5c-0.828 0-1.5 0.672-1.5 1.5v4.5c0 0.83 0.672 1.5 1.5 1.5h13.915c0.519 0.894 1.476 1.5 2.585 1.5h6v-10.5h-3zM7.5 9.002h3v1.5h-3v-1.5zM15 15.002h-12.75c-0.414 0-0.75-0.336-0.75-0.75v-3c0-0.414 0.336-0.75 0.75-0.75h3.75v1.5h6v-1.5h3v4.5zM19.5 16.502h-1.5c-0.83 0-1.5-0.671-1.5-1.5v-4.5c0-0.828 0.67-1.5 1.5-1.5h1.5v7.5zM22.5 16.502h-1.5v-7.5h1.5v7.5z"></path>
</svg>

<svg width="24" height="24" viewBox="0 0 24 24" fill="none" xmlns="http://www.w3.org/2000/svg">
<path d="M21 7.502H18C16.893 7.502 15.934 8.11 15.415 9.002H12V7.502H6V9.002H1.5C0.672 9.002 0 9.674 0 10.502V15.002C0 15.832 0.672 16.502 1.5 16.502H15.415C15.934 17.396 16.891 18.002 18 18.002H24V7.502H21V7.502ZM7.5 9.002H10.5V10.502H7.5V9.002ZM15 15.002H2.25C1.836 15.002 1.5 14.666 1.5 14.252V11.252C1.5 10.838 1.836 10.502 2.25 10.502H6V12.002H12V10.502H15V15.002ZM19.5 16.502H18C17.17 16.502 16.5 15.831 16.5 15.002V10.502C16.5 9.674 17.17 9.002 18 9.002H19.5V16.502ZM22.5 16.502H21V9.002H22.5V16.502Z" fill="#1C2125"/>
</svg>
